X: 74
T:Blooming Meadows Jig
M:6/8
L:1/8
Z:abc by Bruce Osborne - bosborne@kos.net
K:Gm
D G2 G2 A|B2 d cAG|F2 D DED|F3 FED|!
DGG G2 A|BAG ABc|d2 B cAF|G3 G,2 z:|!
|:g2 d def|g2 a bag|f2 d ded|f2 g agf|!
g2 d def|g2 a bag|fed cBA|G3 G,2 z:|!
